assets/images/visibility_off.svg

<?xml version="1.0" encoding="UTF-8"?>
<svg width="96" height="96" fill="none" version="1.1" viewBox="0 0 96 96" xmlns="http://www.w3.org/2000/svg">
 <g id="Actions/visibility_off" transform="translate(13.5 13.915)" clip-path="url(#clip0_785_2893)">
  <path id="Vector" d="m34.5 18.417c7.82 0 14.167 6.3467 14.167 14.167 0 1.445-0.2833 2.8333-0.68 4.1366l8.67 8.67c3.9384-3.485 7.055-7.8483 9.01-12.835-4.9016-12.41-17-21.222-31.167-21.222-3.5984 0-7.055 0.5666-10.313 1.615l6.1484 6.1483c1.3316-0.3967 2.72-0.68 4.165-0.68zm-26.322-9.4633c-1.105 1.105-1.105 2.89 0 3.995l5.5817 5.5816c-4.59 3.655-8.245 8.4717-10.427 14.053 4.9017 12.438 17 21.25 31.167 21.25 4.3066 0 8.415-0.85 12.212-2.3234l7.7067 7.7067c1.105 1.105 2.89 1.105 3.995 0s1.105-2.89 0-3.995l-46.212-46.268c-1.105-1.105-2.9183-1.105-4.0233 0zm26.322 37.797c-7.82 0-14.167-6.3466-14.167-14.167 0-2.1817 0.51-4.25 1.3883-6.0634l4.4484 4.4484c-0.085 0.51-0.17 1.0483-0.17 1.615 0 4.7033 3.7966 8.5 8.5 8.5 0.5666 0 1.0766-0.085 1.615-0.1984l4.4483 4.4484c-1.8417 0.9066-3.8817 1.4166-6.0633 1.4166zm8.415-15.102c-0.425-3.9667-3.5417-7.055-7.48-7.48z" fill="#9e9e9e"/>
 </g>
 <defs>
  <clipPath id="clip0_785_2893">
   <rect transform="translate(.5)" width="68" height="68" fill="#fff"/>
  </clipPath>
 </defs>
</svg>

<svg width="69" height="68" viewBox="0 0 69 68" fill="none" xmlns="http://www.w3.org/2000/svg">
<g id="Actions/visibility_off" clip-path="url(#clip0_785_2893)">
<path id="Vector" d="M34.5002 18.4166C42.3202 18.4166 48.6668 24.7633 48.6668 32.5833C48.6668 34.0283 48.3835 35.4166 47.9868 36.7199L56.6568 45.3899C60.5952 41.9049 63.7118 37.5416 65.6668 32.5549C60.7652 20.1449 48.6668 11.3333 34.5002 11.3333C30.9018 11.3333 27.4452 11.8999 24.1868 12.9483L30.3352 19.0966C31.6668 18.6999 33.0552 18.4166 34.5002 18.4166ZM8.1785 8.95326C7.0735 10.0583 7.0735 11.8433 8.1785 12.9483L13.7602 18.5299C9.17016 22.1849 5.51516 27.0016 3.3335 32.5833C8.23516 45.0216 20.3335 53.8333 34.5002 53.8333C38.8068 53.8333 42.9152 52.9833 46.7118 51.5099L54.4185 59.2166C55.5235 60.3216 57.3085 60.3216 58.4135 59.2166C59.5185 58.1116 59.5185 56.3266 58.4135 55.2216L12.2018 8.95326C11.0968 7.84826 9.2835 7.84826 8.1785 8.95326ZM34.5002 46.7499C26.6802 46.7499 20.3335 40.4033 20.3335 32.5833C20.3335 30.4016 20.8435 28.3333 21.7218 26.5199L26.1702 30.9683C26.0852 31.4783 26.0002 32.0166 26.0002 32.5833C26.0002 37.2866 29.7968 41.0833 34.5002 41.0833C35.0668 41.0833 35.5768 40.9983 36.1152 40.8849L40.5635 45.3333C38.7218 46.2399 36.6818 46.7499 34.5002 46.7499ZM42.9152 31.6483C42.4902 27.6816 39.3735 24.5933 35.4352 24.1683L42.9152 31.6483Z" fill="#9E9E9E"/>
</g>
<defs>
<clipPath id="clip0_785_2893">
<rect width="68" height="68" fill="white" transform="translate(0.5)"/>
</clipPath>
</defs>
</svg>
